assets/ic_close.svg

<svg width="40.000000" height="40.000000" viewBox="0 0 40 40" fill="none" xmlns="http://www.w3.org/2000/svg" xmlns:xlink="http://www.w3.org/1999/xlink">
	<desc>
			Created with Pixso.
	</desc>
	<defs/>
	<rect id="back" rx="20.000000" width="40.000000" height="40.000000" fill="#FF3E79" fill-opacity="1.000000"/>
	<path id="icon" d="M21.5361 20L27.7427 26.2065C28.1333 26.5972 28.1333 27.2305 27.7427 27.6211L27.6206 27.7432C27.23 28.1333 26.5969 28.1333 26.2063 27.7432L20 21.5366L13.7935 27.7432C13.4028 28.1333 12.7698 28.1333 12.3792 27.7432L12.2571 27.6211C11.8665 27.2305 11.8665 26.5972 12.2571 26.2065L18.4636 20L12.2571 13.7935C11.8665 13.4033 11.8665 12.77 12.2571 12.3794L12.3792 12.2573C12.7698 11.8667 13.4028 11.8667 13.7935 12.2573L20 18.4639L26.2063 12.2573C26.5969 11.8667 27.23 11.8667 27.6206 12.2573L27.7427 12.3794C28.1333 12.77 28.1333 13.4033 27.7427 13.7935L21.5361 20Z" clip-rule="evenodd" fill="#FFFFFF" fill-opacity="1.000000" fill-rule="evenodd"/>
</svg>

<svg width="40" height="40" fill="none" xmlns="http://www.w3.org/2000/svg"><rect rx="20" width="40" height="40" fill="#FF3E79"/><path d="m21.536 20 6.207 6.206a1 1 0 0 1 0 1.415l-.122.122a1 1 0 0 1-1.415 0L20 21.537l-6.207 6.206a1 1 0 0 1-1.414 0l-.122-.122a1 1 0 0 1 0-1.415L18.464 20l-6.207-6.207a1 1 0 0 1 0-1.414l.122-.122a1 1 0 0 1 1.415 0L20 18.464l6.206-6.207a1 1 0 0 1 1.415 0l.122.122a1 1 0 0 1 0 1.415L21.536 20Z" clip-rule="evenodd" fill="#FFF" fill-rule="evenodd"/></svg>
